blockchains/elrond/RIDE-7d18e9.svg

<svg fill="none" height="192" viewBox="0 0 192 192" width="192" xmlns="http://www.w3.org/2000/svg" xmlns:xlink="http://www.w3.org/1999/xlink"><linearGradient id="a" gradientUnits="userSpaceOnUse" x1="33.3333" x2="200" y1="178.667" y2="70.6667"><stop offset="0" stop-color="#1acbfc"/><stop offset="1" stop-color="#ff009b"/></linearGradient><radialGradient id="b" cx="0" cy="0" gradientTransform="matrix(124.44455696 -68.44452403 68.44452403 124.44455696 38.7555 139.556)" gradientUnits="userSpaceOnUse" r="1"><stop offset="0" stop-color="#1d15ec"/><stop offset="1" stop-color="#9002ae"/></radialGradient><circle cx="96" cy="96" fill="url(#a)" r="96"/><circle cx="95.9998" cy="96" fill="url(#b)" r="76.8"/><path clip-rule="evenodd" d="m82.9295 139.011h-18.975l-.0235-33.751h-23.931v-12.617h23.9222l-.0073-10.4083h-23.9149v-12.6171h23.9061l-.0132-18.951h39.1201c8.749 0 16.018 2.8339 21.748 8.4402 3.187 3.1187 5.478 6.6188 6.884 10.5108h18.755v12.6171h-17.174c-.204 2.5975-.726 5.0355-1.565 7.3676-.39 1.084-.804 2.0994-1.24 3.0407h19.977v12.617h-32.229l-.555.299 18.914 33.452h-20.207l-17.004-30.927h-16.3875zm28.0925-51.1953c2.28-2.2179 3.389-4.9286 3.389-8.1322 0-3.45-1.109-6.2839-3.389-8.5633-2.279-2.2179-5.175-3.3884-8.625-3.3884h-19.5291v23.3491h19.5291c3.45 0 6.346-1.0474 8.625-3.2652z" fill="#fff" fill-rule="evenodd"/></svg>

<svg width="192" height="192" viewBox="0 0 192 192" fill="none" xmlns="http://www.w3.org/2000/svg" class="expanded"><g style="mix-blend-mode: normal;"><circle cx="96" cy="96" r="96" fill="url(#paint0_linear_3416_9155)"></circle></g><g style="mix-blend-mode: normal;"><circle cx="95.9998" cy="96" r="76.8" fill="url(#paint1_radial_3416_9155)"></circle></g><path fill-rule="evenodd" clip-rule="evenodd" d="M82.9295 139.011H63.9545L63.931 105.26H40V92.643H63.9222L63.9149 82.2347H40V69.6176H63.9061L63.8929 50.6666H103.013C111.762 50.6666 119.031 53.5005 124.761 59.1068C127.948 62.2255 130.239 65.7256 131.645 69.6176H150.4V82.2347H133.226C133.022 84.8322 132.5 87.2702 131.661 89.6023C131.271 90.6863 130.857 91.7017 130.421 92.643H150.398V105.26H118.169L117.614 105.559L136.528 139.011H116.321L99.317 108.084H82.9295V139.011ZM111.022 87.8157C113.302 85.5978 114.411 82.8871 114.411 79.6835C114.411 76.2335 113.302 73.3996 111.022 71.1202C108.743 68.9023 105.847 67.7318 102.397 67.7318H82.8679V91.0809H102.397C105.847 91.0809 108.743 90.0335 111.022 87.8157Z" fill="white"></path><defs><linearGradient id="paint0_linear_3416_9155" x1="33.3333" y1="178.667" x2="200" y2="70.6667" gradientUnits="userSpaceOnUse"><stop stop-color="#1ACBFC"></stop><stop offset="1" stop-color="#FF009B"></stop></linearGradient><radialGradient id="paint1_radial_3416_9155" cx="0" cy="0" r="1" gradientUnits="userSpaceOnUse" gradientTransform="translate(38.7555 139.556) rotate(-28.8108) scale(142.025)"><stop stop-color="#1D15EC"></stop><stop offset="1" stop-color="#9002AE"></stop></radialGradient></defs></svg>
